.local/share/icons/Gruvbox-Plus-Dark/actions/16/tool-tweak.svg

<svg xmlns="http://www.w3.org/2000/svg" width="16" height="16" viewBox="0 0 16 16">
 <defs>
  <style id="current-color-scheme" type="text/css">
   .ColorScheme-Text { color:#ebdbb2; } .ColorScheme-Highlight { color:#458588; }
  </style>
 </defs>
 <path style="fill:currentColor" class="ColorScheme-Text" d="M 9.7851562 0.98632812 C 9.6058244 0.97506172 9.4255594 0.9795875 9.2480469 1 C 7.4815469 1.369 6.6307438 3.2845656 6.0898438 4.9472656 C 5.6167938 6.4576656 5.1670375 8.3052437 3.6484375 8.9648438 C 2.9897975 9.2243437 1.7200312 9.3291031 1.0195312 9.2207031 L 1 14.941406 L 15 14.980469 L 15 9.2597656 C 13.1869 9.5457656 11.140384 9.5036438 9.6464844 8.2773438 C 8.3327844 7.1489437 7.9007294 4.8738344 8.8496094 3.3652344 C 9.7949794 2.2396344 11.759753 2.7087969 12.376953 3.9667969 C 12.887763 4.2327969 12.721979 3.4627562 12.636719 3.1601562 C 12.277391 1.8974438 11.040479 1.065193 9.7851562 0.98632812 z"/>
</svg>

<svg width="16" height="16" version="1.1" xmlns="http://www.w3.org/2000/svg">
  <defs>
    <style id="current-color-scheme" type="text/css">.ColorScheme-Text { color:#ebdbb2; } .ColorScheme-Highlight { color:#458588; }</style>
  </defs>
  <path class="ColorScheme-Text" d="m9.785 0.9863c-0.1793-0.01127-0.3596-0.006741-0.5371 0.01367-1.766 0.369-2.617 2.285-3.158 3.947-0.473 1.51-0.9228 3.358-2.441 4.018-0.6586 0.2595-1.928 0.3643-2.629 0.2559l-0.01953 5.721 14 0.03906v-5.721c-1.813 0.286-3.86 0.2439-5.354-0.9824-1.314-1.128-1.746-3.404-0.7969-4.912 0.9454-1.126 2.91-0.6564 3.527 0.6016 0.5108 0.266 0.345-0.504 0.2598-0.8066-0.3593-1.263-1.596-2.095-2.852-2.174z" fill="currentColor"/>
</svg>
